X:0
T:King Of the Moors
C:Jackie Tolliday-Bailey
M:4/4
L:1/8
K:Bb
%%transpose -8
D2 G,2 B,C D2 | C2 B,2 A,B, C2 | D2 G,2 B,C D2 | C2 B,2 A,2 D |
D2 G,2 B,C D2 | C2 D2 ED    C2 | d2 G2  Bc  D2 | cBAB G4      |
d2 g2 gfga    | b2 gg b2 g2    | c2 f2 fefg    | _a2 ag f4    |
d2 g2 gfga |b2 gg d2 g2 | f2 d2 c2 GG | F2 A2 G4 |